Yaru++/apps/16/marker.svg

<svg height="16" width="16" xmlns="http://www.w3.org/2000/svg"><g fill="#808080"><path d="m4.9941406 0c-1.2582.0145-2.1788906-.03060438-2.9316406.38476562-.37637.20766001-.6732306.55938688-.8378906.99804688-.16467.43867-.2246094.9595775-.2246094 1.6171875v10c0 .65761.0598994 1.178578.2246094 1.617188.16468.43861.4615306.788523.8378906.996093.75272.41514 1.6735406.371649 2.9316406.386719h.0019532 5.0058592.003906c.476279-.005489.865152-.016585 1.253907-.033203l-.978516-.978516c-.106319.001909-.16797.010395-.28125.011719h-4.9941406-.0058594c-1.25863-.0152-2.0890981-.059899-2.4550781-.261719-.18342-.10116-.2872257-.212856-.3847657-.472656-.09755-.25979-.1601562-.673235-.1601562-1.265625v-10c0-.59239.0625962-1.005725.1601562-1.265625.0976001-.25991.2033088-.3714662.3867188-.4726562.36595-.20191 1.194605-.2470188 2.453125-.2617188h5c1.25862.0152 2.089098.0598988 2.455078.2617188.18342.1011599.287226.2128562.384766.4726562.09741.25979.160156.673235.160156 1.265625v5.2929688l1 1v-6.2929688c0-.65761-.059899-1.1785775-.224609-1.6171875-.16468-.43861-.461531-.78852375-.837891-.99609375-.75272-.41513-1.673551-.37164875-2.931641-.38671875h-.001953-5.0058591z"/><path d="m5 3.3476556-1 2.6523437 1 1v2l.146484.1464844 4-4-.146484-.1464844h-2.46289zm4.853516 2.5058593-4 4 6.146484 6.1464851 4-4z" fill-rule="evenodd"/></g></svg>

<?xml version="1.0" encoding="UTF-8" standalone="no"?>
<svg
   xmlns:osb="http://www.openswatchbook.org/uri/2009/osb"
   xmlns:dc="http://purl.org/dc/elements/1.1/"
   xmlns:cc="http://creativecommons.org/ns#"
   xmlns:rdf="http://www.w3.org/1999/02/22-rdf-syntax-ns#"
   xmlns:svg="http://www.w3.org/2000/svg"
   xmlns="http://www.w3.org/2000/svg"
   xmlns:sodipodi="http://sodipodi.sourceforge.net/DTD/sodipodi-0.dtd"
   xmlns:inkscape="http://www.inkscape.org/namespaces/inkscape"
   width="16"
   height="16"
   version="1.1"
   id="svg17"
   sodipodi:docname="applications-accessories-symbolic.svg"
   inkscape:version="0.92.4 (5da689c313, 2019-01-14)">
  <metadata
     id="metadata21">
    <rdf:RDF>
      <cc:Work
         rdf:about="">
        <dc:format>image/svg+xml</dc:format>
        <dc:type
           rdf:resource="http://purl.org/dc/dcmitype/StillImage" />
        <dc:title></dc:title>
      </cc:Work>
    </rdf:RDF>
  </metadata>
  <sodipodi:namedview
     pagecolor="#ffffff"
     bordercolor="#666666"
     borderopacity="1"
     objecttolerance="10"
     gridtolerance="10"
     guidetolerance="10"
     inkscape:pageopacity="0"
     inkscape:pageshadow="2"
     inkscape:window-width="1920"
     inkscape:window-height="1016"
     id="namedview19"
     showgrid="false"
     inkscape:zoom="50.218378"
     inkscape:cx="8.8534955"
     inkscape:cy="7.6464845"
     inkscape:window-x="0"
     inkscape:window-y="27"
     inkscape:window-maximized="1"
     inkscape:current-layer="svg17" />
  <defs
     id="defs9">
    <linearGradient
       id="linearGradient5606"
       osb:paint="solid">
      <stop
         id="stop5608"
         offset="0"
         style="stop-color:#000000" />
    </linearGradient>
    <linearGradient
       id="linearGradient4526"
       osb:paint="solid">
      <stop
         id="stop4528"
         offset="0"
         style="stop-color:#ffffff" />
    </linearGradient>
    <linearGradient
       id="linearGradient3600-4"
       osb:paint="gradient">
      <stop
         id="stop3602-7"
         offset="0"
         style="stop-color:#f4f4f4" />
      <stop
         id="stop3604-6"
         offset="1"
         style="stop-color:#dbdbdb" />
    </linearGradient>
  </defs>
  <g
     transform="translate(-512.00004,-160)"
     id="g15">
    <path
       style="fill:#808080"
       d="M 4.9941406 0 C 3.7359406 0.0145 2.81525 -0.030604375 2.0625 0.38476562 C 1.68613 0.59242563 1.3892694 0.9441525 1.2246094 1.3828125 C 1.0599394 1.8214825 1 2.34239 1 3 L 1 13 C 1 13.65761 1.0598994 14.178578 1.2246094 14.617188 C 1.3892894 15.055798 1.68614 15.405711 2.0625 15.613281 C 2.81522 16.028421 3.7360406 15.98493 4.9941406 16 L 4.9960938 16 L 10.001953 16 L 10.005859 16 C 10.482138 15.994511 10.871011 15.983415 11.259766 15.966797 L 10.28125 14.988281 C 10.174931 14.99019 10.11328 14.998676 10 15 L 5.0058594 15 L 5 15 C 3.74137 14.9848 2.9109019 14.940101 2.5449219 14.738281 C 2.3615019 14.637121 2.2576962 14.525425 2.1601562 14.265625 C 2.0626062 14.005835 2 13.59239 2 13 L 2 3 C 2 2.40761 2.0625962 1.994275 2.1601562 1.734375 C 2.2577563 1.474465 2.363465 1.3629088 2.546875 1.2617188 C 2.912825 1.0598088 3.74148 1.0147 5 1 L 10 1 C 11.25862 1.0152 12.089098 1.0598988 12.455078 1.2617188 C 12.638498 1.3628787 12.742304 1.474575 12.839844 1.734375 C 12.937254 1.994165 13 2.40761 13 3 L 13 8.2929688 L 14 9.2929688 L 14 3 C 14 2.34239 13.940101 1.8214225 13.775391 1.3828125 C 13.610711 0.9442025 13.31386 0.59428875 12.9375 0.38671875 C 12.18478 -0.02841125 11.263949 0.01507 10.005859 0 L 10.003906 0 L 4.9980469 0 L 4.9941406 0 z "
       transform="translate(512.00004,160)"
       id="path11" />
  </g>
  <path
     style="display:inline;fill:#808080;fill-opacity:1;fill-rule:evenodd;stroke:none;enable-background:new"
     d="m 5,3.3476556 -1,2.6523437 1,1 v 2 l 0.146484,0.1464844 4,-4 L 9,4.9999993 H 6.53711 Z m 4.853516,2.5058593 -4,4 L 12,16 16,12 Z"
     id="path1087"
     inkscape:connector-curvature="0" />
</svg>
